X: 1
T: Myskvalsen
O: \"Oland, Sweden
R: waltz
S: Laurie Hart, Fiddle Hell 2015
Z: 2015 John Chambers <jc:trillian.mit.edu>
M: 3/4
L: 1/8
K: Em
B,2 |\
"Em"E2 F2 G2 | G2 FG F2 | "D"F2 D2 D2 | F2 EF "Em"E2 |\
"Em"E2 F2 G2 | G2 FG F2 | "D"F2 D2 D2 | "Em"E4 :|
|: GA |\
"G"B2 G2 GA | B2 G2 Gd | "(D7)"d2 dB ed | "G"B2 G2 GA |\
"G"B2 G2 GA | B2 G2 G2 | "D"F2 D2 D2 | "Em"E4 :|
